assets/img/braze_icons/toggle-03-left.svg

<svg fill="none" height="24" viewBox="0 0 24 24" width="24" xmlns="http://www.w3.org/2000/svg"><path clip-rule="evenodd" d="m8 5c-3.86599 0-7 3.13401-7 7 0 3.866 3.13401 7 7 7h8c3.866 0 7-3.134 7-7 0-3.86599-3.134-7-7-7zm4 7c0 2.2091-1.7909 4-4 4-2.20914 0-4-1.7909-4-4 0-2.20914 1.79086-4 4-4 2.2091 0 4 1.79086 4 4z" fill="#801ed7" fill-rule="evenodd"/></svg>

<svg width="24" height="24" viewBox="0 0 24 24" fill="none" xmlns="http://www.w3.org/2000/svg">
<path fill-rule="evenodd" clip-rule="evenodd" d="M8 5C4.13401 5 1 8.13401 1 12C1 15.866 4.13401 19 8 19H16C19.866 19 23 15.866 23 12C23 8.13401 19.866 5 16 5H8ZM12 12C12 14.2091 10.2091 16 8 16C5.79086 16 4 14.2091 4 12C4 9.79086 5.79086 8 8 8C10.2091 8 12 9.79086 12 12Z" fill="#801ED7"/>
</svg>
